src/lib/packages/icons/src/assets/filled/face-laugh-tears.svg

<svg width="24" height="24" viewBox="0 0 24 24" fill="none" xmlns="http://www.w3.org/2000/svg">
<path d="M21.56 15.05C21.26 15.35 20.89 15.5 20.5 15.5C20.11 15.5 19.71 15.34 19.38 15.01C18.56 14.19 18.5 12 18.5 12C18.5 12 20.7 12.06 21.52 12.88C22.17 13.53 22.15 14.46 21.56 15.05ZM2.48998 12.88C1.82998 13.53 1.85997 14.46 2.44997 15.05C2.73997 15.35 3.11997 15.5 3.50997 15.5C3.89997 15.5 4.29998 15.34 4.62998 15.01C5.44998 14.19 5.49998 12 5.49998 12C5.49998 12 3.30998 12.06 2.48998 12.88ZM20.94 10.98C20.96 11.19 20.76 11.36 20.56 11.3C19.67 11.05 18.79 11.01 18.53 11H18.5C18.24 11 17.98 11.11 17.79 11.29C17.6 11.49 17.49 11.75 17.5 12.03C17.51 12.46 17.62 14.67 18.67 15.72C18.92 15.98 19.21 16.17 19.52 16.3C19.68 16.37 19.74 16.58 19.65 16.73C18.07 19.29 15.24 21 12 21C8.75998 21 5.92998 19.29 4.34998 16.73C4.25998 16.58 4.30997 16.37 4.47997 16.3C4.78997 16.17 5.07998 15.98 5.32998 15.72C6.32998 14.72 6.47998 12.68 6.49998 12.1V12C6.49998 11.45 6.05998 11 5.49998 11H5.46998C5.19998 11 4.32997 11.05 3.44997 11.3C3.24997 11.36 3.03997 11.19 3.05997 10.98C3.56997 6.49001 7.37998 3 12 3C16.62 3 20.43 6.49001 20.94 10.98ZM8.70998 10.53C8.82998 10.17 9.45997 10.17 9.58997 10.53C9.69997 10.84 9.98998 11.04 10.3 11.04C10.38 11.04 10.46 11.03 10.54 11C10.93 10.87 11.14 10.44 11.01 10.05C10.74 9.25999 9.98997 8.73001 9.14997 8.73001C8.30997 8.73001 7.56997 9.25999 7.28997 10.05C7.15997 10.44 7.35998 10.87 7.74998 11C8.13998 11.14 8.56997 10.93 8.69997 10.54L8.70998 10.53ZM15.19 14.47C15.26 14.15 14.92 13.91 14.62 14.03C12.87 14.73 11.13 14.73 9.37998 14.03C9.07998 13.91 8.73997 14.15 8.80997 14.47C9.13997 15.92 10.44 17 12 17C13.56 17 14.86 15.92 15.19 14.47ZM16.71 10.04C16.44 9.25001 15.69 8.72 14.85 8.72C14.01 8.72 13.26 9.25001 12.99 10.04C12.86 10.43 13.06 10.86 13.46 10.99C13.54 11.02 13.62 11.03 13.7 11.03C14.01 11.03 14.3 10.83 14.41 10.52C14.53 10.16 15.16 10.16 15.29 10.52C15.43 10.91 15.85 11.12 16.24 10.98C16.63 10.84 16.84 10.42 16.7 10.03L16.71 10.04Z" fill="currentColor"/>
</svg>

<svg xmlns="http://www.w3.org/2000/svg" width="24" height="24" fill="none"><path fill="currentColor" d="M21.56 15.05c-.3.3-.67.45-1.06.45s-.79-.16-1.12-.49c-.82-.82-.88-3.01-.88-3.01s2.2.06 3.02.88c.65.65.63 1.58.04 2.17ZM2.49 12.88c-.66.65-.63 1.58-.04 2.17.29.3.67.45 1.06.45s.79-.16 1.12-.49c.82-.82.87-3.01.87-3.01s-2.19.06-3.01.88Zm18.45-1.9c.02.21-.18.38-.38.32a9.13 9.13 0 0 0-2.03-.3h-.03c-.26 0-.52.11-.71.29-.19.2-.3.46-.29.74.01.43.12 2.64 1.17 3.69.25.26.54.45.85.58.16.07.22.28.13.43A8.973 8.973 0 0 1 12 21c-3.24 0-6.07-1.71-7.65-4.27-.09-.15-.04-.36.13-.43.31-.13.6-.32.85-.58 1-1 1.15-3.04 1.17-3.62V12c0-.55-.44-1-1-1h-.03c-.27 0-1.14.05-2.02.3-.2.06-.41-.11-.39-.32C3.57 6.49 7.38 3 12 3c4.62 0 8.43 3.49 8.94 7.98Zm-12.23-.45c.12-.36.75-.36.88 0 .11.31.4.51.71.51a.753.753 0 0 0 .71-.99 1.972 1.972 0 0 0-3.72 0c-.13.39.07.82.46.95.39.14.82-.07.95-.46l.01-.01Zm6.48 3.94c.07-.32-.27-.56-.57-.44-1.75.7-3.49.7-5.24 0-.3-.12-.64.12-.57.44A3.264 3.264 0 0 0 12 17c1.56 0 2.86-1.08 3.19-2.53Zm1.52-4.43a1.963 1.963 0 0 0-1.86-1.32c-.84 0-1.59.53-1.86 1.32a.745.745 0 0 0 .71.99c.31 0 .6-.2.71-.51.12-.36.75-.36.88 0 .14.39.56.6.95.46.39-.14.6-.56.46-.95l.01.01Z"/></svg>
